web/wp-content/themes/cncf-twenty-two/images/projects/schemahero-icon-color.svg

<svg xmlns="http://www.w3.org/2000/svg" role="img" viewBox="-7.88 -7.38 406.50 409.50"><path fill="#326DE6" fill-rule="evenodd" d="M195.387 25.6297c-2.084-1.0471-4.54-1.0471-6.623 0L52.145 94.2978c-1.9682.9893-3.3908 2.8068-3.8781 4.9546L15.0381 245.722c-.4945 2.18.0272 4.466 1.4185 6.216L110.02 369.614c1.398 1.759 3.523 2.785 5.771 2.785H268.36c2.248 0 4.373-1.026 5.771-2.785l93.563-117.676c1.391-1.75 1.913-4.036 1.419-6.216L335.884 99.2524c-.488-2.1478-1.91-3.9653-3.878-4.9546L195.387 25.6297zm-13.246-13.1695c6.25-3.14151 13.619-3.14151 19.869 0l136.619 68.6681c5.904 2.9679 10.172 8.4202 11.634 14.8638l33.229 146.4689c1.483 6.54-.082 13.399-4.256 18.649l-93.563 117.676c-4.195 5.278-10.57 8.353-17.313 8.353H115.791c-6.743 0-13.118-3.075-17.3136-8.353L4.91444 261.11c-4.17376-5.25-5.739-12.109-4.25537-18.649L33.8879 95.9921c1.4618-6.4436 5.7295-11.8959 11.6342-14.8638L182.141 12.4602z" clip-rule="evenodd"/><path fill="#326DE6" fill-rule="evenodd" d="M200.24 18.1375l46.782 220.2495L37.746 102.001l8.0518-12.3482L225.189 206.563 185.818 21.1993l14.422-3.0618z" clip-rule="evenodd"/><path fill="#326DE6" fill-rule="evenodd" d="M368.145 255.309l-133.817-27.598 2.808-14.451 133.817 27.598-2.808 14.451z" clip-rule="evenodd"/><path fill="#326DE6" fill-rule="evenodd" d="M241.154 225.143L116.409 378.014l-11.425-9.318 124.745-152.871 11.425 9.318z" clip-rule="evenodd"/><path fill="#326DE6" fill-rule="evenodd" d="M103.542 374.522L34.6176 97.6058l14.308-3.5594L117.85 370.963l-14.308 3.559zm258.339-112.295L130.887 374.522l-5.466-12.162 230.994-112.295 5.466 12.162z" clip-rule="evenodd"/><path fill="#1D4493" d="M262.616 215.826c0 15.83-12.836 28.664-28.672 28.664-15.835 0-28.671-12.834-28.671-28.664 0-15.831 12.836-28.665 28.671-28.665 15.836 0 28.672 12.834 28.672 28.665zm128.273 34.238c0 10.795-8.753 19.546-19.551 19.546-10.798 0-19.552-8.751-19.552-19.546 0-10.794 8.754-19.546 19.552-19.546s19.551 8.752 19.551 19.546zM136.314 370.333c0 13.234-10.731 23.962-23.969 23.962-13.237 0-23.968-10.728-23.968-23.962s10.731-23.962 23.968-23.962c13.238 0 23.969 10.728 23.969 23.962zM60.3448 95.8258c0 10.2552-8.3154 18.5682-18.5731 18.5682-10.2576 0-18.5731-8.313-18.5731-18.5682 0-10.2549 8.3155-18.5681 18.5731-18.5681 10.2577 0 18.5731 8.3132 18.5731 18.5681zM209.512 18.1376c0 9.6276-7.806 17.4323-17.437 17.4323-9.63 0-17.437-7.8047-17.437-17.4323 0-9.62763 7.807-17.43234 17.437-17.43234 9.631 0 17.437 7.80471 17.437 17.43234z"/></svg>

<svg width="391" height="395" viewBox="0 0 391 395" fill="none" xmlns="http://www.w3.org/2000/svg">
<path fill-rule="evenodd" clip-rule="evenodd" d="M195.387 25.6297C193.303 24.5826 190.847 24.5826 188.764 25.6297L52.145 94.2978C50.1768 95.2871 48.7542 97.1046 48.2669 99.2524L15.0381 245.722C14.5436 247.902 15.0653 250.188 16.4566 251.938L110.02 369.614C111.418 371.373 113.543 372.399 115.791 372.399H268.36C270.608 372.399 272.733 371.373 274.131 369.614L367.694 251.938C369.085 250.188 369.607 247.902 369.113 245.722L335.884 99.2524C335.396 97.1046 333.974 95.2871 332.006 94.2978L195.387 25.6297ZM182.141 12.4602C188.391 9.31869 195.76 9.31869 202.01 12.4602L338.629 81.1283C344.533 84.0962 348.801 89.5485 350.263 95.9921L383.492 242.461C384.975 249.001 383.41 255.86 379.236 261.11L285.673 378.786C281.478 384.064 275.103 387.139 268.36 387.139H115.791C109.048 387.139 102.673 384.064 98.4774 378.786L4.91444 261.11C0.740681 255.86 -0.824562 249.001 0.659069 242.461L33.8879 95.9921C35.3497 89.5485 39.6174 84.0962 45.5221 81.1283L182.141 12.4602Z" fill="#326DE6"/>
<path fill-rule="evenodd" clip-rule="evenodd" d="M200.24 18.1375L247.022 238.387L37.746 102.001L45.7978 89.6528L225.189 206.563L185.818 21.1993L200.24 18.1375Z" fill="#326DE6"/>
<path fill-rule="evenodd" clip-rule="evenodd" d="M368.145 255.309L234.328 227.711L237.136 213.26L370.953 240.858L368.145 255.309Z" fill="#326DE6"/>
<path fill-rule="evenodd" clip-rule="evenodd" d="M241.154 225.143L116.409 378.014L104.984 368.696L229.729 215.825L241.154 225.143Z" fill="#326DE6"/>
<path fill-rule="evenodd" clip-rule="evenodd" d="M103.542 374.522L34.6176 97.6058L48.9256 94.0464L117.85 370.963L103.542 374.522Z" fill="#326DE6"/>
<path fill-rule="evenodd" clip-rule="evenodd" d="M361.881 262.227L130.887 374.522L125.421 362.36L356.415 250.065L361.881 262.227Z" fill="#326DE6"/>
<path d="M262.616 215.826C262.616 231.656 249.78 244.49 233.944 244.49C218.109 244.49 205.273 231.656 205.273 215.826C205.273 199.995 218.109 187.161 233.944 187.161C249.78 187.161 262.616 199.995 262.616 215.826Z" fill="#1D4493"/>
<path d="M390.889 250.064C390.889 260.859 382.136 269.61 371.338 269.61C360.54 269.61 351.786 260.859 351.786 250.064C351.786 239.27 360.54 230.518 371.338 230.518C382.136 230.518 390.889 239.27 390.889 250.064Z" fill="#1D4493"/>
<path d="M136.314 370.333C136.314 383.567 125.583 394.295 112.345 394.295C99.108 394.295 88.377 383.567 88.377 370.333C88.377 357.099 99.108 346.371 112.345 346.371C125.583 346.371 136.314 357.099 136.314 370.333Z" fill="#1D4493"/>
<path d="M60.3448 95.8258C60.3448 106.081 52.0294 114.394 41.7717 114.394C31.5141 114.394 23.1986 106.081 23.1986 95.8258C23.1986 85.5709 31.5141 77.2577 41.7717 77.2577C52.0294 77.2577 60.3448 85.5709 60.3448 95.8258Z" fill="#1D4493"/>
<path d="M209.512 18.1376C209.512 27.7652 201.706 35.5699 192.075 35.5699C182.445 35.5699 174.638 27.7652 174.638 18.1376C174.638 8.50997 182.445 0.705261 192.075 0.705261C201.706 0.705261 209.512 8.50997 209.512 18.1376Z" fill="#1D4493"/>
</svg>
